public/img/CATEGORIES_ICONS/FOOD_ICON.svg

<?xml version="1.0" encoding="UTF-8"?>
<svg width="87px" height="122px" viewBox="0 0 87 122" version="1.1" xmlns="http://www.w3.org/2000/svg" xmlns:xlink="http://www.w3.org/1999/xlink">
    <!-- Generator: Sketch 42 (36781) - http://www.bohemiancoding.com/sketch -->
    <title>FOOD_ICON</title>
    <desc>Created with Sketch.</desc>
    <defs></defs>
    <g id="Page-1" stroke="none" stroke-width="1" fill="none" fill-rule="evenodd">
        <g id="Home" transform="translate(-127.000000, -1223.000000)">
            <g id="CATEGORIES" transform="translate(122.000000, 1066.000000)">
                <g id="FOOD_ICON" transform="translate(5.000000, 156.982000)">
                    <polygon id="Fill-75" fill="#00B1B0" points="0.1431 25.1164 43.4441 0.1164 86.7471 25.1164 86.7471 75.1164 43.4441 100.1164 0.1431 75.1164"></polygon>
                    <path d="M28.456,70.696 L58.487,70.696 L58.487,65.664 L28.456,65.664 L28.456,70.696 Z M67.539,39.839 C67.539,44.604 63.677,48.466 58.913,48.466 C58.77,48.466 58.628,48.461 58.487,48.454 L58.487,64.626 L28.456,64.626 L28.456,47.999 C28.296,48.008 28.137,48.013 27.976,48.013 C23.212,48.013 19.35,44.151 19.35,39.387 C19.35,34.623 23.212,30.761 27.976,30.761 C30.849,30.761 33.391,32.166 34.96,34.325 C35.129,29.711 38.921,26.022 43.578,26.022 C48.267,26.022 52.081,29.765 52.198,34.427 C53.779,32.468 56.199,31.213 58.913,31.213 C63.677,31.213 67.539,35.075 67.539,39.839 L67.539,39.839 Z" id="Fill-76" fill="#FEFEFE"></path>
                    <polygon id="Fill-77" fill="#00B1B0" points="27.1868 113.3408 32.0798 113.3408 32.0798 114.6728 28.7338 114.6728 28.7338 117.0828 31.5518 117.0828 31.5518 118.4138 28.7338 118.4138 28.7338 121.8568 27.1868 121.8568"></polygon>
                    <path d="M37.3484,120.585 C38.9074,120.585 40.1544,119.29 40.1544,117.539 C40.1544,115.859 38.9074,114.612 37.3484,114.612 C35.7884,114.612 34.5414,115.859 34.5414,117.539 C34.5414,119.29 35.7884,120.585 37.3484,120.585 M37.3484,113.197 C39.8544,113.197 41.7494,115.105 41.7494,117.539 C41.7494,120.046 39.8544,122 37.3484,122 C34.8414,122 32.9464,120.046 32.9464,117.539 C32.9464,115.105 34.8414,113.197 37.3484,113.197" id="Fill-78" fill="#00B1B0"></path>
                    <path d="M47.1404,120.585 C48.6994,120.585 49.9464,119.29 49.9464,117.539 C49.9464,115.859 48.6994,114.612 47.1404,114.612 C45.5804,114.612 44.3334,115.859 44.3334,117.539 C44.3334,119.29 45.5804,120.585 47.1404,120.585 M47.1404,113.197 C49.6464,113.197 51.5414,115.105 51.5414,117.539 C51.5414,120.046 49.6464,122 47.1404,122 C44.6334,122 42.7384,120.046 42.7384,117.539 C42.7384,115.105 44.6334,113.197 47.1404,113.197" id="Fill-79" fill="#00B1B0"></path>
                    <path d="M55.9368,120.5254 C57.6638,120.5254 58.7678,119.5054 58.7678,117.5874 C58.7678,115.6914 57.6398,114.6724 55.9368,114.6724 L54.6658,114.6724 L54.6658,120.5254 L55.9368,120.5254 Z M53.1188,113.3404 L56.0208,113.3404 C58.6468,113.3404 60.3618,114.9004 60.3618,117.5874 C60.3618,120.2734 58.6468,121.8564 56.0208,121.8564 L53.1188,121.8564 L53.1188,113.3404 Z" id="Fill-80" fill="#00B1B0"></path>
                </g>
            </g>
        </g>
    </g>
</svg>

<svg width="87" height="122" viewBox="0 0 87 122" xmlns="http://www.w3.org/2000/svg"><title>FOOD_ICON</title><g fill="none" fill-rule="evenodd"><path fill="#00B1B0" d="M.143 25.098l43.301-25 43.303 25v50l-43.303 25-43.3-25z"/><path d="M28.456 70.678h30.031v-5.032H28.456v5.032zm39.083-30.857a8.626 8.626 0 0 1-9.052 8.615v16.172H28.456V47.981a8.626 8.626 0 1 1 6.504-13.674 8.623 8.623 0 0 1 17.238.102 8.626 8.626 0 0 1 15.341 5.412z" fill="#FEFEFE"/><path fill="#00B1B0" d="M27.187 113.323h4.893v1.332h-3.346v2.41h2.818v1.33h-2.818v3.444h-1.547zM37.348 120.567c1.56 0 2.806-1.295 2.806-3.046 0-1.68-1.247-2.927-2.806-2.927-1.56 0-2.807 1.247-2.807 2.927 0 1.751 1.247 3.046 2.807 3.046m0-7.388c2.506 0 4.401 1.908 4.401 4.342 0 2.507-1.895 4.461-4.4 4.461-2.508 0-4.403-1.954-4.403-4.461 0-2.434 1.895-4.342 4.402-4.342M47.14 120.567c1.56 0 2.806-1.295 2.806-3.046 0-1.68-1.247-2.927-2.806-2.927-1.56 0-2.807 1.247-2.807 2.927 0 1.751 1.247 3.046 2.807 3.046m0-7.388c2.506 0 4.401 1.908 4.401 4.342 0 2.507-1.895 4.461-4.4 4.461-2.508 0-4.403-1.954-4.403-4.461 0-2.434 1.895-4.342 4.402-4.342M55.937 120.507c1.727 0 2.83-1.02 2.83-2.938 0-1.896-1.127-2.915-2.83-2.915h-1.271v5.853h1.27zm-2.818-7.185h2.902c2.626 0 4.34 1.56 4.34 4.247 0 2.686-1.714 4.27-4.34 4.27h-2.902v-8.517z"/></g></svg>
